www/assets/icons/crop_16_9.svg

<svg xmlns="http://www.w3.org/2000/svg" width="24" height="24" viewBox="0 0 24 24" fill='currentColor'><path d="M19 7H5c-1.1 0-2 .9-2 2v6c0 1.1.9 2 2 2h14c1.1 0 2-.9 2-2V9c0-1.1-.9-2-2-2m0 8H5V9h14z"/></svg>

<svg width="24" height="24" viewBox="0 0 24 24" xmlns="http://www.w3.org/2000/svg" fill='currentColor'><path d="M19 7H5C3.9 7 3 7.9 3 9V15C3 16.1 3.9 17 5 17H19C20.1 17 21 16.1 21 15V9C21 7.9 20.1 7 19 7ZM19 15H5V9H19V15Z"/></svg>
